X: 23042
T: Last Resort, The
R: jig
M: 6/8
K: Adorian
A2e edc|ABc EFG|A2e ABd|eab gdB|
A2e edB|G2d dBG|=F2c cAF|BAG A3:|
efg a3|agb age|def g2e|dBA G3|
ABd e2e|deg B3|=FAB cAF|BAG A3:|

